packages/icons/svg/Outline/star.svg

<svg width="24" height="24" viewBox="0 0 24 24" fill="none" xmlns="http://www.w3.org/2000/svg">
<g id="Icon/Outline/star">
<path id="Mask" fill-rule="evenodd" clip-rule="evenodd" d="M11.9995 16.05C12.1585 16.05 12.3175 16.088 12.4625 16.163L16.2315 18.133L15.5145 13.976C15.4575 13.65 15.5665 13.318 15.8045 13.087L18.8405 10.151L14.6375 9.539C14.3125 9.492 14.0315 9.289 13.8855 8.995L11.9995 5.201L10.1135 8.995C9.96755 9.289 9.68655 9.492 9.36155 9.539L5.15855 10.151L8.19455 13.087C8.43255 13.318 8.54155 13.65 8.48455 13.976L7.76755 18.133L11.5365 16.163C11.6815 16.088 11.8405 16.05 11.9995 16.05ZM17.5615 20.955C17.4025 20.955 17.2435 20.918 17.0985 20.842L11.9995 18.178L6.90055 20.842C6.56255 21.018 6.15455 20.987 5.84955 20.763C5.54155 20.539 5.38855 20.16 5.45255 19.785L6.42455 14.157L2.30455 10.172C2.02955 9.907 1.93155 9.509 2.04855 9.146C2.16455 8.783 2.47855 8.519 2.85555 8.464L8.55655 7.636L11.1035 2.51C11.4415 1.83 12.5575 1.83 12.8955 2.51L15.4425 7.636L21.1435 8.464C21.5205 8.519 21.8345 8.783 21.9505 9.146C22.0675 9.509 21.9695 9.907 21.6945 10.172L17.5745 14.157L18.5465 19.785C18.6105 20.16 18.4575 20.539 18.1495 20.763C17.9765 20.891 17.7695 20.955 17.5615 20.955Z" fill="#000000"/>
</g>
</svg>

<svg fill="none" height="24" viewBox="0 0 24 24" width="24" xmlns="http://www.w3.org/2000/svg"><path clip-rule="evenodd" d="m11.9996 16.0499c.159 0 .318.038.463.113l3.769 1.97-.717-4.157c-.057-.326.052-.658.29-.889l3.036-2.936-4.203-.61203c-.325-.047-.606-.25-.752-.544l-1.886-3.794-1.886 3.794c-.14604.294-.42704.497-.75204.544l-4.203.61203 3.036 2.936c.238.231.347.563.29.889l-.717 4.157 3.76904-1.97c.145-.075.304-.113.463-.113zm5.5619 4.9051c-.159 0-.318-.037-.463-.113l-5.099-2.664-5.09895 2.664c-.338.176-.746.145-1.051-.079-.308-.224-.461-.603-.397-.978l.972-5.628-4.12-3.985c-.275-.265-.373-.663-.256-1.026.116-.363.43-.627.807-.682l5.701-.828 2.54695-5.126c.338-.68 1.454-.68 1.792 0l2.547 5.126 5.701.828c.377.055.691.319.807.682.117.363.019.761-.256 1.026l-4.12 3.985.972 5.628c.064.375-.089.754-.397.978-.173.128-.38.192-.588.192z" fill="#6b7280" fill-rule="evenodd"/></svg>
